X:1
T:Прелюдия до мажор, BWV 933
T:Прелюдия до мажор, BWV 933
T:Шесть маленьких прелюдий
T:Bach, Johann Sebastian
C:Bach, Johann Sebastian
%%score { ( 1 2 3 5 ) | 4 }
L:1/8
Q:1/4=80
M:4/4
K:C
V:1 treble nm="Piano" snm="Pno."
V:2 treble 
V:3 treble 
V:5 treble 
V:4 bass 
V:1
 MC2 z F ME2 z c | DD z D (FE) z2 | MD2 z E z2 z F | EG G/F/G/A/{E} P!invertedturn!D2 z/ G/B/d/ | %4
 !tenuto!e/d/c/B/ A/G/^F/E/ F/D/F/A/ F/D/F/A/ | !tenuto!d/c/B/A/ G/^F/E/D/ E/C/E/G/ E/C/E/G/ | %6
 !tenuto!c/B/A/G/ ^F/G/A/F/ D/E/F/G/ A/B/c/A/ | .d.G B/A/G/^F/ G/D/B, z2 :: MG2 z c MB2 z e | %9
 dd dc (dc) z2 | !tenuto!g2 z _B MA2 z a | fe dc{f} (ed) z/ G/B/d/ | %12
 !tenuto!g/f/e/d/ c/_B/A/G/ A/F/A/c/ A/F/A/c/ | !tenuto!f/e/d/c/ =B/A/G/F/ G/F/G/d/ G/F/G/d/ | %14
 !tenuto!e/d/c/B/ A/G/F/E/ D/F/A/c/ B/G/B/d/ | ec e/d/c/B/ c/G/E/C/ z2 :| %16
V:2
 [G,E]2 x2 [CG]2 z E | x2 dF DC x2 | B,2 x2 !tenuto![DF]2 z D | CE CC{/C} B,2 x2 | x8 | x8 | x8 | %7
 x8 :: [DB]2 x2 [Gd]2 z c | x2 fe BA x2 | G2 x2 F2 z c | x2 fe cB/ x5/2 | x8 | x8 | x8 | x8 :| %16
V:3
 x3 D x4 | MFF x6 | x3 C x4 | x8 | x8 | x8 | x8 | x8 :: x3 A x4 | ff x6 | x3 G x4 | =bc' x6 | x8 | %13
 x8 | x8 | x8 :| %16
V:4
 z/ C,,/E,,/G,,/ C,2 z/ C,,/E,,/G,,/ C,2 | %1
 z/ C,/D,/C,/ B,,/D,/G,,/B,,/ C,/C,,/E,,/G,,/ C,/D,/E,/F,/ | %2
 G,/G,,/B,,/D,/ G,2 z/ G,,/B,,/D,/ G,2 | z/ G,,/C,/E,/ .E,,.F,, .G,,/G,/D,/.B,,/ .G,,.G, | %4
 .C,.G, .C,.A, .D,.A, .C,.A, | .B,,.A, .B,,.G, .C,.G, .B,,.G, | .A,,.G, .A,,.A, .^F,.A, .F,.D, | %7
 .B,,.E, .C,.D, .G,z/(G,/ G,,2) :: z/ G,,/B,,/D,/ G,2 z/ G,,/B,,/D,/ G,2 | %9
 z/ A,/B,/A,/ ^G,/B,/E,/G,/ A,/A,,/C,/E,/ A,/B,/C/D/ | E/E,/=G,/C/ E2 z/ F,/A,/C/ F/E/F/E/ | %11
 D/C/D/C/ B,/G,/C/E/ G/^F/G/D/ B,/D/G,/B,/ | .E,.C .E,.C .F,.C .E,.C | %13
 .D,.=B, .C,.A, .B,,.F, .E,.D, | .C,.E, .F,.A, .F,.D, .G,.F, | .E,.A, .F,.G, C,2 C,,2 :| %16
V:5
 x8 | x8 | x8 | x8 | x8 | x8 | x8 | x8 :: x8 | x8 | c2 x6 | x8 | x8 | x8 | x8 | x8 :| %16

